X:1
T:Dusky Hands
T:Dusky Hands
T:Haldor Lillenas
T:Haldor Lillenas, 1915
T:Public Domain Courtesy of the Cyber Hymnal™
T:Public Domain Courtesy of the Cyber Hymnal™
C:Haldor Lillenas
Z:Public Domain
Z:Courtesy of the Cyber Hymnal™
%%score ( 1 2 ) ( 3 4 )
L:1/8
Q:1/4=110
M:4/4
K:Eb
V:1 treble 
V:2 treble 
V:3 bass 
V:4 bass 
V:1
 [GB][GB][^F=A][GB] [_Ac][GB][EG]E | [EG]2 [EG]2 [EG]4 | [GB][GB][^F=A][GB] [Gc]2 [Ge]2 | %3
w: 1.~Dusk- y hands are reach- ing for the|bread of life|Far a- cross the roll- ing|
w: 2.~Dusk- y hands are bound in chains of|want and woe|In the far off hea- then|
w: 3.~We can- not be i- dle an- y|long- er now,|While the souls in dark- ness|
w: 4.~Dusk- y fac- es look to us for|hope and peace,|Shall they look to us in|
 [Ad]6 z2 x2 | [FA][FA][FG][FA] [FB][FA]F[FA] | [Ac]2 [Ac]2 [Ac]4 | [Ad][Ad][Ad][Ad] [Ac]2 [Ac]2 | %7
w: sea;|Shall they per- ish in their mis- er-|y and strife,|Shall they al- ways hung- ry|
w: lands;|Shall we not in haste un- to their|bor- ders go,|Set them free, as God com-|
w: die;|Ga- ther them as jew- els for the|Sav- ior’s brow,|While the days are pass- ing|
w: vain?|Je- sus can re- deem them, cause their|sighs to cease,|Rend their chains of sin in|
 [GB]6 z2 ||"^Refrain" [Ge][Ge][Ge][Ge] [Ge][GB][^F=A][GB] | [Ac]2 [Ac]2 [Ac]4 | %10
w: be?|||
w: mands?|||
w: by.|||
w: twain.|||
 [Ad][Ad][Ad][Ad] [Ad]2 [Ac]2 | [GB]2 [FA]2 [EG]4 | [Ge][Ge][Ge][Ge] [Ge][GB][^F=A][GB] | %13
w: |||
w: |||
w: |||
w: |||
 [Ad]2 [Ac]2 [Ac]2 [^Fe]2 | [GB][EG]E[FA] [EG]2 [DF]2 | E6 z2 |] %16
w: |||
w: |||
w: |||
w: |||
V:2
 x7 E | x8 | x8 | x10 | x6 F x | x8 | x8 | x8 || x8 | x8 | x8 | x8 | x8 | x8 | x2 E x5 | E6 x2 |] %16
V:3
 [E,E][E,E][E,E][E,E] [E,E][E,E][E,B,][E,G,] | [E,B,]2 [B,,B,]2 [E,B,]4 | %2
w: ~ ~ ~ ~ ~ ~ ~ ~|~ ~ ~|
 [E,E][E,E][E,E][E,E] [E,E]2 [E,B,]2 | (z2 z2) x6 | %4
w: ~ ~ ~ ~ ~ ~||
 [B,,D][B,,D][B,,D][B,,D] [B,,D][B,,D][B,,D][B,,D] | [F,D]2 [B,,D]2 [F,D]4 | %6
w: ~ ~ ~ ~ ~ ~ ~ ~|~ ~ ~|
 [B,,F][B,,F][B,,F][B,,F] [B,,D]2 [B,,D]2 | [E,E]6 z2 || %8
w: ~ ~ ~ ~ ~ ~|~|
 [E,B,][E,B,][E,B,][E,B,] [E,B,][E,E][E,E][E,E] | [A,E]2 [E,E]2 [A,,E]4 | %10
w: ~ Send the Gos- pel tid- ings o-|ver land and|
 [B,,F][B,,F][B,,F][B,,F] [B,,B,]2 [B,,B,]2 | [D,B,]2 [D,B,]2 [E,B,]4 | %12
w: sea, Let the hung- ry souls|be sat- is-|
 [E,B,][E,B,][E,B,][E,B,] [E,B,][E,E][E,E][E,E] | [A,C]2 [A,E]2 [A,,E]2 [=A,,C]2 | %14
w: fied, Till the pow’r of Je- sus sets|the cap- tives free,|
 [B,,E][B,,B,][B,,G,][A,,C] [B,,B,]2 [B,,A,]2 | [E,G,]6 z2 |] %16
w: O lead them to the Mas-|ter’s|
V:4
 x8 | x8 | x8 | ([F,B,]6 B,,2 F,2) | x8 | x8 | x8 | x8 || x8 | x8 | x8 | x8 | x8 | x8 | x8 | x8 |] %16

